true-colors/assets/california.svg

<svg version="1.1" xmlns="http://www.w3.org/2000/svg" xmlns:xlink="http://www.w3.org/1999/xlink" width="800" height="500" viewBox="0 0 800 500"><defs/><g/><g transform="scale(1,1)"><g><g transform="scale(1,1)"><rect fill="rgb(255,0,4)" stroke="none" x="0" y="0" width="800" height="500" fill-opacity="1"/></g><path fill="none" stroke="rgb(156,0,255)" paint-order="fill stroke markers" d=" M 367.11111111111114 0 L 367.11111111111114 500" stroke-opacity="1" stroke-linecap="square" stroke-miterlimit="10" stroke-width="567.2875"/><path fill="rgb(0,3,107)" stroke="none" paint-order="stroke fill markers" d=" M 357.23170935878125 256.46083476272145 C 357.23170935878125 207.92672038635777 396.57638286120556 168.5820468839335 445.11049723756923 168.5820468839335 C 493.6446116139329 168.5820468839335 532.9892851163572 207.92672038635777 532.9892851163572 256.46083476272145 C 532.9892851163572 304.9949491390851 493.6446116139329 344.33962264150944 445.11049723756923 344.33962264150944 C 396.57638286120556 344.33962264150944 357.23170935878125 304.9949491390851 357.23170935878125 256.46083476272145 Z" fill-opacity="1"/><g transform="translate(715,85) rotate(-90,0,0)"><path fill="rgb(166,0,0)" stroke="none" paint-order="stroke fill markers" d=" M 39 0 L 15.588457268119896 8.999999999999998 L 19.500000000000004 33.77499074759311 L 1.102182119232618e-15 18 L -19.499999999999993 33.77499074759311 L -15.588457268119893 9.000000000000005 L -39 4.776122516674678e-15 L -15.5884572681199 -8.999999999999995 L -19.500000000000018 -33.7749907475931 L -3.3065463576978533e-15 -18 L 19.499999999999975 -33.77499074759312 L 15.58845726811989 -9.000000000000007 L 39 -4.419120340165424e-14 L 15.588457268119903 8.999999999999988 L 39 0 L 39 0" fill-opacity="1"/></g></g></g></svg>

<?xml version="1.0" encoding="utf-8"?>
<!-- Generator: Adobe Illustrator 21.0.2, SVG Export Plug-In . SVG Version: 6.00 Build 0)  -->
<svg version="1.1" id="Layer_1" xmlns="http://www.w3.org/2000/svg" xmlns:xlink="http://www.w3.org/1999/xlink" x="0px" y="0px"
	 viewBox="0 0 800 500" style="enable-background:new 0 0 800 500;" xml:space="preserve">
<style type="text/css">
	.st0{fill:#FF00FF;}
	.st1{fill:none;stroke:#9C00FF;stroke-width:567.2875;stroke-linecap:square;stroke-miterlimit:10;}
	.st2{fill:#00036B;}
	.st3{fill:#A70000;}
</style>
<g transform="scale(1,1)">
	<g>
		<g transform="scale(1,1)">
			<rect class="st0" width="800" height="500"/>
		</g>
		<path class="st1" d="M367.1,0v500"/>
		<path class="st2" d="M357.2,256.5c0-48.5,39.3-87.9,87.9-87.9s87.9,39.3,87.9,87.9s-39.3,87.9-87.9,87.9S357.2,305,357.2,256.5z"
			/>
		<g transform="translate(715,85) rotate(-90,0,0)">
			<path class="st3" d="M39,0L15.6,9l3.9,24.8L0,18l-19.5,15.8L-15.6,9L-39,0l23.4-9l-3.9-24.8L0-18l19.5-15.8L15.6-9L39,0L15.6,9
				L39,0L39,0"/>
		</g>
	</g>
</g>
</svg>
